desktop/renderer-app/src/assets/image/phone.svg

<?xml version="1.0" encoding="UTF-8"?>
<svg width="22px" height="22px" viewBox="0 0 22 22" version="1.1" xmlns="http://www.w3.org/2000/svg" xmlns:xlink="http://www.w3.org/1999/xlink">
    <title>folder备份</title>
    <g id="白板" stroke="none" stroke-width="1" fill="none" fill-rule="evenodd" stroke-linecap="round" stroke-linejoin="round">
        <g id="Flat-规范" transform="translate(-1212.000000, -16.000000)" stroke="#7A7B7C">
            <g id="folder备份" transform="translate(1212.000000, 16.000000)">
                <path d="M12.3264597,13.3636574 L12.6693084,13.1566614 C12.8043051,13.0781697 12.9150167,13.0191272 13.0257282,12.970504 C13.8042805,12.6259737 14.489978,12.8697844 15.3970986,13.9012914 C15.9585133,14.5396448 16.1249378,15.105758 15.9085146,15.6100503 C15.74709,15.9872276 15.435669,16.2470145 14.8821112,16.5686224 C14.8463978,16.5894609 14.5271199,16.7700615 14.4456934,16.8186847 C13.1564393,17.5924885 10.2022262,15.8219086 8.07727841,12.796155 C5.94661648,9.76276054 5.39520146,6.52792703 6.70159793,5.7430093 L6.87373656,5.63673283 L7.06087481,5.51864786 C7.72157287,5.10396124 8.14441962,4.93794767 8.64583587,5.02060715 C9.14582358,5.10396124 9.57224168,5.46377308 9.93151856,6.12018658 C10.6914999,7.50733765 10.5243611,8.165835 9.54724229,8.76390063 C9.47652974,8.80835615 9.22725015,8.95422582 9.20439357,8.96881278 C8.96439947,9.1125986 9.37010379,10.0781169 10.3129378,11.4208124 C11.2672,12.7780949 12.0650376,13.5199464 12.3257454,13.3636574 L12.3264597,13.3636574 Z" id="路径"></path>
            </g>
        </g>
    </g>
</svg>

<svg width="22" height="22" xmlns="http://www.w3.org/2000/svg"><path d="m12.326 13.364.343-.207c.135-.079.246-.138.357-.186.778-.345 1.464-.101 2.371.93.562.639.728 1.205.512 1.71-.162.376-.473.636-1.027.958-.036.02-.355.201-.436.25-1.29.773-4.244-.997-6.369-4.023-2.13-3.033-2.682-6.268-1.375-7.053l.172-.106.187-.118c.66-.415 1.083-.581 1.585-.498.5.083.926.443 1.286 1.1.76 1.386.592 2.045-.385 2.643-.07.044-.32.19-.343.205-.24.144.166 1.11 1.109 2.452.954 1.357 1.752 2.099 2.013 1.943h0Z" stroke="#7A7B7C" fill="none" stroke-linecap="round" stroke-linejoin="round"/></svg>
